!!!OTL: 404. Das Buendnis.
!!!COM: Karl Blum (?)
!!!ODT: 1825 (um)
!!!ARE: Europa, Mitteleuropa, Deutschland, Lausitz
!!!SCT: B0404
!!!TXL: @@DE
!!!YEM: Copyright 1995, estate of Helmut Schaffrath.
**kern	**text
*ICvox	*
*Ivox	*
*clefG2	*
*M3/4	*
*k[f#]	*
*G:	*
=1	=1
!LO:TX:a:t=Mäßig langſam.	!
{8g	Klei-
8b	-ne
8dd	Blu-
8dd	-men,
16ccL	klei-
16bJ	.
16aL	-ne
16gJ	.
=2	=2
8gL	Blät-
8f#J	.
4f#	-ter
4r}	.
=3	=3
{8.d	ſtreu-
16cc	-en
8cc	mit
8cc	mit
8.dd	leich-
16cc	-ter
=4	=4
(4cc	Hand
4b)	.
4r}	.
=5	=5
{8g	gu-
8gg	-te,
8gg	jun-
8gg	-ge
16aaL	Früh-
16ggJ	.
16ff#L	-lings-
16eeJ	.
=6	=6
8eeL	-göt-
8ddJ	.
4dd	-ter
4r}	.
=7	=7
{8f#	tändelnd
8dd	.
8dd	auf
8dd	ein
8cc	luſ-
8f#	-tig
=8	=8
(4a	Band.
4g)	.
4r}	.
==	==
!!!AGN: Liebes - Lied, Liebes - Lust
!!!GTL: Liebeslieder - Liebeslust
!!!ONB: ESAC (Essen Associative Code) Database: BOEHME
!!!AMT: simple triple
!!!AIN: vox
!!!EED: Helmut Schaffrath
!!!EEV: 1.0
!!Mel. um 1825 v. Karl Blum. (?) Hier nach mündl. Ueberlieferung aus der Laufitʒ. 1858.
!!@@COMMENT:"Text von Goethe 1771. "Mit einem gemalten Band" an Friederike in Seſenheim. Daher
!!im "Seſenheimer Liederb. " (ſ. Freim. Pfeiffer, "Goetbe's Friederike" S. 131. ) Ʒuerſt gedruckt in
!!Jacobi's "Jris". Bd. 2. Stück 1. Jenner 1775. S. 13, unterʒeichnet D. Ʒ. Später in Goethe's
!!Werken. "
!!@@END:
!!!Text: J. W. Goethe
!!!URL-scan: https://archive.org/details/BoehmeVtLieder1895/page/n333/mode/2up
!!!ENC: Anna Maria Matuszewska
!!!EEV: 2024/08/07
*-	*-
